svg/monogram.svg

<svg width="197" height="199" viewBox="0 0 197 199" fill="none" xmlns="http://www.w3.org/2000/svg">
<g filter="url(#filter0_d_1_46)">
<path d="M51.1337 26.1384C58.0002 20.1455 70.1134 12.9583 77.8503 7.30666C80.8725 5.2806 83.5804 3.08393 87.3038 2.38014C95.3309 1.01521 104.712 3.6171 112.981 5.57918C119.606 7.32799 125.722 7.43461 132.033 10.1218C140.834 14.3872 146.854 20.7426 147.555 28.8469C147.7 41.1312 134.958 47.4867 121.371 45.8232C113.924 45.2047 100.916 42.88 97.7003 38.444C96.2255 33.1763 108.75 36.9298 111.989 36.354C120.428 36.1834 123.982 26.4796 120.21 20.6573C113.126 10.3138 85.3213 11.828 81.2352 23.4725C80.8967 25.6265 82.0331 27.7806 83.1936 29.8706C91.5833 43.136 106.574 68.2591 114.842 78.4108C117.695 80.3089 120.113 80.2875 124.465 81.5245C130.582 83.06 138.779 85.342 145.355 87.6027C159.717 92.3159 175.988 99.8444 176.351 114.56C177.294 123.795 172.338 134.181 164.262 139.79C159.741 142.989 152.415 144.78 153.189 149.408C154.784 158.792 162.57 178.05 175.505 173.081C181.162 170.906 178.382 162.055 181.767 158.515C189.697 153.695 192.478 168.219 190.713 173.06C187.57 188.095 172.603 193.448 158.218 184.982C149.248 179.863 143.179 168.453 141.172 158.92C139.528 151.84 138.077 149.472 130.582 150.965C121.54 152.117 105.195 153.908 92.8406 152.821C80.5824 151.648 44.9442 147.595 37.2798 145.015C27.7053 141.517 12.5458 137.764 6.74309 129.553C2.246 119.892 19.2189 110.998 29.2285 113.088C33.1937 113.408 38.0051 116.032 37.3523 118.569C37.1105 120.084 35.4181 120.894 33.7982 121.022C31.332 121.491 27.5119 120.19 25.5776 121.832C23.5225 124.413 28.3581 128.977 31.8156 130.001C37.5699 132.155 45.1617 133.84 45.3068 127.975C46.008 113.451 49.0302 44.9914 49.7072 30.4677C49.8039 28.8469 49.9248 27.5886 51.0369 26.2876L51.1821 26.117L51.1337 26.1384Z" fill="#FED769"/>
<path d="M51.1337 26.1384C58.0002 20.1455 70.1134 12.9583 77.8503 7.30666C80.8725 5.2806 83.5804 3.08393 87.3038 2.38014C95.3309 1.01521 104.712 3.6171 112.981 5.57918C119.606 7.32799 125.722 7.43461 132.033 10.1218C140.834 14.3872 146.854 20.7426 147.555 28.8469C147.7 41.1312 134.958 47.4867 121.371 45.8232C113.924 45.2047 100.916 42.88 97.7003 38.444C96.2255 33.1763 108.75 36.9298 111.989 36.354C120.428 36.1834 123.982 26.4796 120.21 20.6573C113.126 10.3138 85.3213 11.828 81.2352 23.4725C80.8967 25.6265 82.0331 27.7806 83.1936 29.8706C91.5833 43.136 106.574 68.2591 114.842 78.4108C117.695 80.3089 120.113 80.2875 124.465 81.5245C130.582 83.06 138.779 85.342 145.355 87.6027C159.717 92.3159 175.988 99.8444 176.351 114.56C177.294 123.795 172.338 134.181 164.262 139.79C159.741 142.989 152.415 144.78 153.189 149.408C154.784 158.792 162.57 178.05 175.505 173.081C181.162 170.906 178.382 162.055 181.767 158.515C189.697 153.695 192.478 168.219 190.713 173.06C187.57 188.095 172.603 193.448 158.218 184.982C149.248 179.863 143.179 168.453 141.172 158.92C139.528 151.84 138.077 149.472 130.582 150.965C121.54 152.117 105.195 153.908 92.8406 152.821C80.5824 151.648 44.9442 147.595 37.2798 145.015C27.7053 141.517 12.5458 137.764 6.74309 129.553C2.246 119.892 19.2189 110.998 29.2285 113.088C33.1937 113.408 38.0051 116.032 37.3523 118.569C37.1105 120.084 35.4181 120.894 33.7982 121.022C31.332 121.491 27.5119 120.19 25.5776 121.832C23.5225 124.413 28.3581 128.977 31.8156 130.001C37.5699 132.155 45.1617 133.84 45.3068 127.975C46.008 113.451 49.0302 44.9914 49.7072 30.4677C49.8039 28.8469 49.9248 27.5886 51.0369 26.2876L51.1821 26.117L51.1337 26.1384Z" stroke="#231F20" stroke-width="3" stroke-linecap="round" stroke-linejoin="round"/>
</g>
<path d="M74.0785 45.7592C74.7314 44.8635 75.4809 46.8682 77.1492 49.3208C80.7759 55.2924 86.361 63.5032 89.6008 69.3255C87.9809 70.1359 76.1095 70.8397 72.6521 62.4582C70.5244 57.0838 71.8542 51.0909 73.9577 45.9511L74.1027 45.7592H74.0785Z" fill="#44C4DA" stroke="#231F20" stroke-width="3" stroke-linecap="round" stroke-linejoin="round"/>
<path d="M75.6502 77.6643C80.244 76.3847 84.9103 81.6738 89.4557 83.0814C95.887 86.1098 102.609 87.3468 105.8 93.4249C114.02 106.37 123.933 120.873 131.646 133.669C132.275 134.97 132.226 136.25 131.018 136.932C109.934 148.704 75.9161 139.321 70.4035 135.716C68.0341 134.159 68.566 130.811 68.5902 128.124C68.7836 120.212 69.388 104.28 69.7023 94.534C69.6056 88.9676 70.5486 80.6501 75.36 77.7923L75.6502 77.6643Z" fill="#F594A9" stroke="#231F20" stroke-width="3" stroke-linecap="round" stroke-linejoin="round"/>
<path d="M127.923 100.378C127.343 100.612 127.125 100.868 127.149 101.359C127.608 103.854 131.501 110.742 139.601 118.484C143.058 121.79 149.417 122.813 154.107 122.771C154.615 122.707 154.929 122.558 155.099 122.28C156.017 111.126 147.749 95.9841 128.165 100.292L127.923 100.378Z" fill="#A3D17B" stroke="#231F20" stroke-width="3" stroke-linecap="round" stroke-linejoin="round"/>
<defs>
<filter id="filter0_d_1_46" x="0.499878" y="0.500061" width="196.223" height="198" filterUnits="userSpaceOnUse" color-interpolation-filters="sRGB">
<feFlood flood-opacity="0" result="BackgroundImageFix"/>
<feColorMatrix in="SourceAlpha" type="matrix" values="0 0 0 0 0 0 0 0 0 0 0 0 0 0 0 0 0 0 127 0" result="hardAlpha"/>
<feOffset dy="4"/>
<feGaussianBlur stdDeviation="2"/>
<feComposite in2="hardAlpha" operator="out"/>
<feColorMatrix type="matrix" values="0 0 0 0 0 0 0 0 0 0 0 0 0 0 0 0 0 0 0.25 0"/>
<feBlend mode="normal" in2="BackgroundImageFix" result="effect1_dropShadow_1_46"/>
<feBlend mode="normal" in="SourceGraphic" in2="effect1_dropShadow_1_46" result="shape"/>
</filter>
</defs>
</svg>

<?xml version="1.0" encoding="UTF-8"?>
<svg xmlns="http://www.w3.org/2000/svg" viewBox="0 0 197 199">
  <defs>
    <style>
      .cls-1 {
        fill: #fed769;
      }

      .cls-2 {
        fill: none;
      }

      .cls-2, .cls-3, .cls-4, .cls-5 {
        stroke: #231f20;
        stroke-linecap: round;
        stroke-linejoin: round;
        stroke-width: 3px;
      }

      .cls-3 {
        fill: #a3d17b;
      }

      .cls-4 {
        fill: #f594a9;
      }

      .cls-5 {
        fill: #44c4da;
      }
    </style>
  </defs>
  <g id="Layer_1">
    <g>
      <path class="cls-1" d="M51.13,26.14c6.87-5.99,18.98-13.18,26.72-18.83,3.02-2.03,5.73-4.22,9.45-4.93,8.03-1.36,17.41,1.24,25.68,3.2,6.62,1.75,12.74,1.86,19.05,4.54,8.8,4.27,14.82,10.62,15.52,18.73.15,12.28-12.6,18.64-26.18,16.98-7.45-.62-20.46-2.94-23.67-7.38-1.47-5.27,11.05-1.51,14.29-2.09,8.44-.17,11.99-9.87,8.22-15.7-7.08-10.34-34.89-8.83-38.97,2.82-.34,2.15.8,4.31,1.96,6.4,8.39,13.27,23.38,38.39,31.65,48.54,2.85,1.9,5.27,1.88,9.62,3.11,6.12,1.54,14.31,3.82,20.89,6.08,14.36,4.71,30.63,12.24,31,26.96.94,9.24-4.01,19.62-12.09,25.23-4.52,3.2-11.85,4.99-11.07,9.62,1.6,9.38,9.38,28.64,22.32,23.67,5.66-2.17,2.88-11.03,6.26-14.57,7.93-4.82,10.71,9.7,8.95,14.54-3.14,15.04-18.11,20.39-32.49,11.92-8.97-5.12-15.04-16.53-17.05-26.06-1.64-7.08-3.1-9.45-10.59-7.96-9.04,1.15-25.39,2.94-37.74,1.86-12.26-1.17-47.9-5.23-55.56-7.81-9.57-3.5-24.73-7.25-30.54-15.46-4.5-9.66,12.48-18.55,22.49-16.46,3.97.32,8.78,2.94,8.12,5.48-.24,1.51-1.93,2.32-3.55,2.45-2.47.47-6.29-.83-8.22.81-2.06,2.58,2.78,7.15,6.24,8.17,5.75,2.15,13.35,3.84,13.49-2.03.7-14.52,3.72-82.98,4.4-97.51.1-1.62.22-2.88,1.33-4.18l.15-.17-.05.02Z"/>
      <path class="cls-2" d="M51.13,26.14c6.87-5.99,18.98-13.18,26.72-18.83,3.02-2.03,5.73-4.22,9.45-4.93,8.03-1.36,17.41,1.24,25.68,3.2,6.62,1.75,12.74,1.86,19.05,4.54,8.8,4.27,14.82,10.62,15.52,18.73.15,12.28-12.6,18.64-26.18,16.98-7.45-.62-20.46-2.94-23.67-7.38-1.47-5.27,11.05-1.51,14.29-2.09,8.44-.17,11.99-9.87,8.22-15.7-7.08-10.34-34.89-8.83-38.97,2.82-.34,2.15.8,4.31,1.96,6.4,8.39,13.27,23.38,38.39,31.65,48.54,2.85,1.9,5.27,1.88,9.62,3.11,6.12,1.54,14.31,3.82,20.89,6.08,14.36,4.71,30.63,12.24,31,26.96.94,9.24-4.01,19.62-12.09,25.23-4.52,3.2-11.85,4.99-11.07,9.62,1.6,9.38,9.38,28.64,22.32,23.67,5.66-2.17,2.88-11.03,6.26-14.57,7.93-4.82,10.71,9.7,8.95,14.54-3.14,15.04-18.11,20.39-32.49,11.92-8.97-5.12-15.04-16.53-17.05-26.06-1.64-7.08-3.1-9.45-10.59-7.96-9.04,1.15-25.39,2.94-37.74,1.86-12.26-1.17-47.9-5.23-55.56-7.81-9.57-3.5-24.73-7.25-30.54-15.46-4.5-9.66,12.48-18.55,22.49-16.46,3.97.32,8.78,2.94,8.12,5.48-.24,1.51-1.93,2.32-3.55,2.45-2.47.47-6.29-.83-8.22.81-2.06,2.58,2.78,7.15,6.24,8.17,5.75,2.15,13.35,3.84,13.49-2.03.7-14.52,3.72-82.98,4.4-97.51.1-1.62.22-2.88,1.33-4.18l.15-.17-.05.02Z"/>
    </g>
  </g>
  <g id="Layer_2">
    <path class="cls-4" d="M75.52,77.77c4.59-1.28,9.26,4.01,13.81,5.42,6.43,3.03,13.15,4.27,16.34,10.34,8.22,12.95,18.13,27.45,25.85,40.24.63,1.3.58,2.58-.63,3.26-21.08,11.77-55.1,2.39-60.61-1.22-2.37-1.56-1.84-4.9-1.81-7.59.19-7.91.8-23.84,1.11-33.59-.1-5.57.85-13.88,5.66-16.74l.29-.13Z"/>
  </g>
  <g id="Layer_3">
    <path class="cls-3" d="M128.05,100.01c-.58.23-.8.49-.77.98.46,2.49,4.35,9.38,12.45,17.12,3.46,3.31,9.82,4.33,14.51,4.29.51-.06.82-.21.99-.49.92-11.15-7.35-26.3-26.93-21.99l-.24.09Z"/>
  </g>
  <g id="Layer_4">
    <path class="cls-5" d="M73.76,45.44c.65-.9,1.4,1.11,3.07,3.56,3.63,5.97,9.21,14.18,12.45,20-1.62.81-13.49,1.51-16.95-6.87-2.13-5.37-.8-11.37,1.31-16.51l.14-.19h-.02Z"/>
  </g>
</svg>
